src/background/finger2.svg

<svg xmlns="http://www.w3.org/2000/svg" width="350" height="350" fill="none"><g filter="url(#a)"><path fill="#AD9AEE" d="M100 100h150v150H100z"/></g><path fill="#EAE5FA" d="M188.556 139.43c-.186 0-.373-.047-.536-.14-4.48-2.31-8.354-3.29-12.997-3.29-4.62 0-9.007 1.097-12.997 3.29-.56.303-1.26.093-1.586-.467a1.18 1.18 0 0 1 .466-1.586c4.34-2.357 9.1-3.57 14.117-3.57 4.97 0 9.31 1.096 14.07 3.546.583.304.793 1.004.49 1.564a1.14 1.14 0 0 1-1.027.653m-33.39 12.25a1.16 1.16 0 0 1-.61-.167 1.17 1.17 0 0 1-.562-1.081 1.16 1.16 0 0 1 .216-.595c2.31-3.267 5.25-5.834 8.75-7.63 7.326-3.78 16.706-3.804 24.056-.024 3.5 1.797 6.44 4.34 8.75 7.584a1.158 1.158 0 0 1 .036 1.302q-.124.196-.316.331a1.163 1.163 0 0 1-1.633-.28 21.9 21.9 0 0 0-7.91-6.86c-6.697-3.43-15.26-3.43-21.933.023-3.174 1.634-5.834 3.967-7.934 6.907-.186.327-.536.49-.91.49m14.584 28.163a1.1 1.1 0 0 1-.817-.35c-2.03-2.03-3.127-3.336-4.69-6.16-1.61-2.87-2.45-6.37-2.45-10.126 0-6.93 5.927-12.577 13.207-12.577s13.206 5.647 13.206 12.577c0 .653-.513 1.166-1.166 1.166a1.155 1.155 0 0 1-1.167-1.166c0-5.647-4.877-10.244-10.873-10.244-5.997 0-10.874 4.597-10.874 10.244 0 3.36.747 6.463 2.17 8.983 1.494 2.683 2.52 3.827 4.317 5.647.443.466.443 1.19 0 1.656-.257.234-.56.35-.863.35m16.73-4.316c-2.777 0-5.227-.701-7.234-2.077-3.476-2.357-5.553-6.183-5.553-10.243 0-.654.513-1.167 1.167-1.167.653 0 1.166.513 1.166 1.167 0 3.29 1.68 6.393 4.527 8.306 1.657 1.12 3.593 1.657 5.927 1.657.56 0 1.493-.07 2.426-.233a1.163 1.163 0 0 1 1.354.956 1.165 1.165 0 0 1-.957 1.354c-1.33.256-2.497.28-2.823.28m-4.69 4.806a1.4 1.4 0 0 1-.304-.046c-3.71-1.027-6.136-2.404-8.68-4.9a17.04 17.04 0 0 1-5.063-12.18c0-3.78 3.22-6.86 7.187-6.86s7.186 3.08 7.186 6.86c0 2.496 2.17 4.526 4.854 4.526 2.683 0 4.853-2.03 4.853-4.526 0-8.797-7.583-15.937-16.917-15.937-6.626 0-12.693 3.687-15.423 9.403-.91 1.89-1.377 4.107-1.377 6.534 0 1.82.164 4.69 1.564 8.423a1.14 1.14 0 0 1-.677 1.493 1.156 1.156 0 0 1-1.493-.676 25.9 25.9 0 0 1-1.704-9.24c0-2.8.537-5.344 1.587-7.56 3.103-6.51 9.987-10.734 17.523-10.734 10.617 0 19.25 8.19 19.25 18.27 0 3.78-3.22 6.86-7.186 6.86-3.967 0-7.187-3.08-7.187-6.86 0-2.496-2.17-4.526-4.853-4.526-2.684 0-4.854 2.03-4.854 4.526 0 3.99 1.54 7.724 4.364 10.524 2.216 2.193 4.34 3.406 7.63 4.316.63.164.98.817.816 1.424a1.14 1.14 0 0 1-1.096.886M130.112 212.18q-.684 0-1.206-.216a1.68 1.68 0 0 1-.81-.684q-.288-.486-.288-1.242v-7.902h2.286v7.614q0 .378.162.558.162.162.522.162.144 0 .306-.036.18-.036.324-.09l.252 1.512q-.342.18-.738.252a4.5 4.5 0 0 1-.81.072m5.22 0q-.684 0-1.206-.216a1.68 1.68 0 0 1-.81-.684q-.288-.486-.288-1.242v-7.902h2.286v7.614q0 .378.162.558.162.162.522.162.144 0 .306-.036.18-.036.324-.09l.252 1.512q-.342.18-.738.252a4.5 4.5 0 0 1-.81.072m6.785 0q-1.566 0-2.43-.666-.864-.684-1.206-1.854-.342-1.188-.342-2.754 0-1.746.342-2.826.342-1.098 1.008-1.602.684-.522 1.656-.522.63 0 1.098.234t.72.828h.072q.216-.612.756-.828.54-.234 1.188-.234 1.206 0 1.836.648t.63 1.926V212h-2.286v-7.146q0-.612-.234-.828-.216-.216-.594-.216-.396 0-.594.216t-.252.72h-1.044q-.072-.558-.324-.738a.8.8 0 0 0-.54-.198q-.558 0-.846.72t-.288 2.394q0 1.098.162 1.89.18.774.612 1.188.432.396 1.242.396.27 0 .468-.018.198-.036.36-.09l.234 1.656a2.6 2.6 0 0 1-.648.18q-.342.054-.756.054m9.594-6.138q-.792 0-1.278-.234-.468-.252-.684-.648a1.8 1.8 0 0 1-.198-.828q0-.306.072-.612.09-.324.252-.594l1.728.234a8 8 0 0 0-.072.27 3 3 0 0 0-.018.306q0 .234.126.378.144.144.486.144h2.25v1.584zm0 5.04q-.792 0-1.278-.234-.468-.252-.684-.648a1.8 1.8 0 0 1-.198-.828q0-.306.072-.612.09-.324.252-.594l1.728.234a8 8 0 0 0-.072.27 3 3 0 0 0-.018.306q0 .234.126.378.144.144.486.144h2.25v1.584zm7.364 1.098q-.684 0-1.206-.216a1.68 1.68 0 0 1-.81-.684q-.288-.486-.288-1.242v-7.902h2.286v7.614q0 .378.162.558.162.162.522.162.144 0 .306-.036.18-.036.324-.09l.252 1.512q-.342.18-.738.252a4.5 4.5 0 0 1-.81.072m4.051-.18-1.728-9.864h2.25l.576 3.78.144 1.242q.09.774.18 1.818h.054q.162-.702.288-1.278.144-.576.27-1.026l.216-.81 1.062-3.726h1.512l1.062 3.726q.108.342.234.81.126.45.252 1.026.144.576.306 1.278h.054q.09-1.044.162-1.818.09-.774.162-1.242l.594-3.78h2.232L171.28 212h-2.232l-1.332-4.518a19 19 0 0 1-.27-1.152 21 21 0 0 1-.198-1.242h-.072a24 24 0 0 1-.144.846q-.072.378-.162.756-.09.36-.216.792L165.322 212zm1.191-11.304v-.972l1.638-.684h6.39v1.656zm3.762-.954v-2.034h1.566v2.034zm2.718 0v-2.034h1.548v2.034zm-1.425-3.024v-3.186h2.034v3.186zm9.493 15.498q-2.106 0-3.132-1.044-1.008-1.062-1.008-3.186 0-.36.018-.846.036-.486.072-.882h4.122v1.548h-1.962v.288q0 .882.198 1.404.216.522.63.756t1.044.234q.684 0 1.17-.288t.738-.99q.27-.72.27-1.998 0-1.152-.27-1.908-.252-.774-.846-1.152t-1.638-.378a6 6 0 0 0-1.116.108 8 8 0 0 0-1.08.288q-.504.18-.918.432v-1.962q.378-.216.936-.36a8.5 8.5 0 0 1 1.224-.252 8.3 8.3 0 0 1 1.332-.108q1.692 0 2.718.648 1.044.63 1.512 1.8.486 1.17.486 2.754 0 1.62-.45 2.772-.45 1.134-1.44 1.728t-2.61.594m7.423-8.28v-2.844q0-.684.126-1.098.126-.432.342-.702t.45-.45l-.018-.072h-2.916l.468-1.692h5.49v1.692q-.666 0-1.17.432-.486.432-.486 1.584v3.15zm2.304 8.244q-.702 0-1.224-.216a1.7 1.7 0 0 1-.792-.684q-.288-.486-.288-1.242v-7.902h2.286v7.614q0 .378.162.558.162.162.522.162.144 0 .306-.036.18-.036.324-.09l.234 1.512q-.342.18-.738.252a4.2 4.2 0 0 1-.792.072m7.232.036q-2.268 0-3.276-1.044-.99-1.044-.99-3.024v-6.012h2.286v6.12q0 1.044.486 1.584.486.522 1.494.522 1.026 0 1.512-.522.486-.54.486-1.584v-9.666h2.286v9.558q0 1.98-1.008 3.024t-3.276 1.044m10.665-.036q-1.566 0-2.43-.666-.864-.684-1.206-1.854-.342-1.188-.342-2.754 0-1.746.342-2.826.342-1.098 1.008-1.602.684-.522 1.656-.522.63 0 1.098.234t.72.828h.072q.216-.612.756-.828.54-.234 1.188-.234 1.206 0 1.836.648t.63 1.926V212h-2.286v-7.146q0-.612-.234-.828-.216-.216-.594-.216-.396 0-.594.216t-.252.72h-1.044q-.072-.558-.324-.738a.8.8 0 0 0-.54-.198q-.558 0-.846.72t-.288 2.394q0 1.098.162 1.89.18.774.612 1.188.432.396 1.242.396.27 0 .468-.018.198-.036.36-.09l.234 1.656a2.6 2.6 0 0 1-.648.18q-.342.054-.756.054m2.812-11.484v-3.978h2.142v3.978zm9.041 11.52q-2.106 0-3.132-1.044-1.008-1.062-1.008-3.186 0-.36.018-.846.036-.486.072-.882h4.122v1.548h-1.962v.288q0 .882.198 1.404.216.522.63.756t1.044.234q.684 0 1.17-.288t.738-.99q.27-.72.27-1.998 0-1.152-.27-1.908-.252-.774-.846-1.152t-1.638-.378a6 6 0 0 0-1.116.108 8 8 0 0 0-1.08.288q-.504.18-.918.432v-1.962q.378-.216.936-.36a8.5 8.5 0 0 1 1.224-.252 8.3 8.3 0 0 1 1.332-.108q1.692 0 2.718.648 1.044.63 1.512 1.8.486 1.17.486 2.754 0 1.62-.45 2.772-.45 1.134-1.44 1.728t-2.61.594"/><defs><filter id="a" width="350" height="350" x="0" y="0" color-interpolation-filters="sRGB" filterUnits="userSpaceOnUse"><feFlood flood-opacity="0" result="BackgroundImageFix"/><feBlend in="SourceGraphic" in2="BackgroundImageFix" result="shape"/><feGaussianBlur result="effect1_foregroundBlur_451_3211" stdDeviation="50"/></filter></defs></svg>

<svg width="350" height="350" viewBox="0 0 350 350" fill="none" xmlns="http://www.w3.org/2000/svg">
<g filter="url(#filter0_f_451_3211)">
<rect width="150" height="150" transform="translate(100 100)" fill="#AD9AEE"/>
</g>
<path d="M188.556 139.43C188.37 139.43 188.183 139.383 188.02 139.29C183.54 136.98 179.666 136 175.023 136C170.403 136 166.016 137.097 162.026 139.29C161.466 139.593 160.766 139.383 160.44 138.823C160.294 138.55 160.262 138.231 160.349 137.934C160.436 137.638 160.636 137.387 160.906 137.237C165.246 134.88 170.006 133.667 175.023 133.667C179.993 133.667 184.333 134.763 189.093 137.213C189.676 137.517 189.886 138.217 189.583 138.777C189.491 138.971 189.346 139.136 189.164 139.251C188.982 139.367 188.772 139.429 188.556 139.43ZM155.166 151.68C154.951 151.682 154.74 151.624 154.556 151.513C154.371 151.403 154.221 151.243 154.122 151.052C154.023 150.861 153.979 150.646 153.994 150.432C154.01 150.217 154.084 150.011 154.21 149.837C156.52 146.57 159.46 144.003 162.96 142.207C170.286 138.427 179.666 138.403 187.016 142.183C190.516 143.98 193.456 146.523 195.766 149.767C195.856 149.892 195.92 150.034 195.954 150.184C195.989 150.334 195.993 150.49 195.967 150.642C195.941 150.793 195.885 150.939 195.802 151.069C195.72 151.199 195.613 151.311 195.486 151.4C194.95 151.773 194.226 151.657 193.853 151.12C191.809 148.228 189.095 145.874 185.943 144.26C179.246 140.83 170.683 140.83 164.01 144.283C160.836 145.917 158.176 148.25 156.076 151.19C155.89 151.517 155.54 151.68 155.166 151.68ZM169.75 179.843C169.597 179.845 169.445 179.815 169.304 179.755C169.164 179.694 169.037 179.605 168.933 179.493C166.903 177.463 165.806 176.157 164.243 173.333C162.633 170.463 161.793 166.963 161.793 163.207C161.793 156.277 167.72 150.63 175 150.63C182.28 150.63 188.206 156.277 188.206 163.207C188.206 163.86 187.693 164.373 187.04 164.373C186.386 164.373 185.873 163.86 185.873 163.207C185.873 157.56 180.996 152.963 175 152.963C169.003 152.963 164.126 157.56 164.126 163.207C164.126 166.567 164.873 169.67 166.296 172.19C167.79 174.873 168.816 176.017 170.613 177.837C171.056 178.303 171.056 179.027 170.613 179.493C170.356 179.727 170.053 179.843 169.75 179.843ZM186.48 175.527C183.703 175.527 181.253 174.826 179.246 173.45C175.77 171.093 173.693 167.267 173.693 163.207C173.693 162.553 174.206 162.04 174.86 162.04C175.513 162.04 176.026 162.553 176.026 163.207C176.026 166.497 177.706 169.6 180.553 171.513C182.21 172.633 184.146 173.17 186.48 173.17C187.04 173.17 187.973 173.1 188.906 172.937C189.536 172.82 190.143 173.24 190.26 173.893C190.376 174.523 189.956 175.13 189.303 175.247C187.973 175.503 186.806 175.527 186.48 175.527ZM181.79 180.333C181.696 180.333 181.58 180.31 181.486 180.287C177.776 179.26 175.35 177.883 172.806 175.387C171.195 173.795 169.917 171.898 169.048 169.807C168.178 167.715 167.735 165.471 167.743 163.207C167.743 159.427 170.963 156.347 174.93 156.347C178.896 156.347 182.116 159.427 182.116 163.207C182.116 165.703 184.286 167.733 186.97 167.733C189.653 167.733 191.823 165.703 191.823 163.207C191.823 154.41 184.24 147.27 174.906 147.27C168.28 147.27 162.213 150.957 159.483 156.673C158.573 158.563 158.106 160.78 158.106 163.207C158.106 165.027 158.27 167.897 159.67 171.63C159.903 172.237 159.6 172.913 158.993 173.123C158.386 173.357 157.71 173.03 157.5 172.447C156.373 169.496 155.796 166.365 155.796 163.207C155.796 160.407 156.333 157.863 157.383 155.647C160.486 149.137 167.37 144.913 174.906 144.913C185.523 144.913 194.156 153.103 194.156 163.183C194.156 166.963 190.936 170.043 186.97 170.043C183.003 170.043 179.783 166.963 179.783 163.183C179.783 160.687 177.613 158.657 174.93 158.657C172.246 158.657 170.076 160.687 170.076 163.183C170.076 167.173 171.616 170.907 174.44 173.707C176.656 175.9 178.78 177.113 182.07 178.023C182.7 178.187 183.05 178.84 182.886 179.447C182.77 179.983 182.28 180.333 181.79 180.333Z" fill="#EAE5FA"/>
<path d="M130.112 212.18C129.656 212.18 129.254 212.108 128.906 211.964C128.558 211.82 128.288 211.592 128.096 211.28C127.904 210.956 127.808 210.542 127.808 210.038V202.136H130.094V209.75C130.094 210.002 130.148 210.188 130.256 210.308C130.364 210.416 130.538 210.47 130.778 210.47C130.874 210.47 130.976 210.458 131.084 210.434C131.204 210.41 131.312 210.38 131.408 210.344L131.66 211.856C131.432 211.976 131.186 212.06 130.922 212.108C130.658 212.156 130.388 212.18 130.112 212.18ZM135.332 212.18C134.876 212.18 134.474 212.108 134.126 211.964C133.778 211.82 133.508 211.592 133.316 211.28C133.124 210.956 133.028 210.542 133.028 210.038V202.136H135.314V209.75C135.314 210.002 135.368 210.188 135.476 210.308C135.584 210.416 135.758 210.47 135.998 210.47C136.094 210.47 136.196 210.458 136.304 210.434C136.424 210.41 136.532 210.38 136.628 210.344L136.88 211.856C136.652 211.976 136.406 212.06 136.142 212.108C135.878 212.156 135.608 212.18 135.332 212.18ZM142.117 212.18C141.073 212.18 140.263 211.958 139.687 211.514C139.111 211.058 138.709 210.44 138.481 209.66C138.253 208.868 138.139 207.95 138.139 206.906C138.139 205.742 138.253 204.8 138.481 204.08C138.709 203.348 139.045 202.814 139.489 202.478C139.945 202.13 140.497 201.956 141.145 201.956C141.565 201.956 141.931 202.034 142.243 202.19C142.555 202.346 142.795 202.622 142.963 203.018H143.035C143.179 202.61 143.431 202.334 143.791 202.19C144.151 202.034 144.547 201.956 144.979 201.956C145.783 201.956 146.395 202.172 146.815 202.604C147.235 203.036 147.445 203.678 147.445 204.53V212H145.159V204.854C145.159 204.446 145.081 204.17 144.925 204.026C144.781 203.882 144.583 203.81 144.331 203.81C144.067 203.81 143.869 203.882 143.737 204.026C143.605 204.17 143.521 204.41 143.485 204.746H142.441C142.393 204.374 142.285 204.128 142.117 204.008C141.961 203.876 141.781 203.81 141.577 203.81C141.205 203.81 140.923 204.05 140.731 204.53C140.539 205.01 140.443 205.808 140.443 206.924C140.443 207.656 140.497 208.286 140.605 208.814C140.725 209.33 140.929 209.726 141.217 210.002C141.505 210.266 141.919 210.398 142.459 210.398C142.639 210.398 142.795 210.392 142.927 210.38C143.059 210.356 143.179 210.326 143.287 210.29L143.521 211.946C143.329 212.03 143.113 212.09 142.873 212.126C142.645 212.162 142.393 212.18 142.117 212.18ZM151.711 206.042C151.183 206.042 150.757 205.964 150.433 205.808C150.121 205.64 149.893 205.424 149.749 205.16C149.617 204.896 149.551 204.62 149.551 204.332C149.551 204.128 149.575 203.924 149.623 203.72C149.683 203.504 149.767 203.306 149.875 203.126L151.603 203.36C151.579 203.444 151.555 203.534 151.531 203.63C151.519 203.726 151.513 203.828 151.513 203.936C151.513 204.092 151.555 204.218 151.639 204.314C151.735 204.41 151.897 204.458 152.125 204.458H154.375V206.042H151.711ZM151.711 211.082C151.183 211.082 150.757 211.004 150.433 210.848C150.121 210.68 149.893 210.464 149.749 210.2C149.617 209.936 149.551 209.66 149.551 209.372C149.551 209.168 149.575 208.964 149.623 208.76C149.683 208.544 149.767 208.346 149.875 208.166L151.603 208.4C151.579 208.484 151.555 208.574 151.531 208.67C151.519 208.766 151.513 208.868 151.513 208.976C151.513 209.132 151.555 209.258 151.639 209.354C151.735 209.45 151.897 209.498 152.125 209.498H154.375V211.082H151.711ZM159.075 212.18C158.619 212.18 158.217 212.108 157.869 211.964C157.521 211.82 157.251 211.592 157.059 211.28C156.867 210.956 156.771 210.542 156.771 210.038V202.136H159.057V209.75C159.057 210.002 159.111 210.188 159.219 210.308C159.327 210.416 159.501 210.47 159.741 210.47C159.837 210.47 159.939 210.458 160.047 210.434C160.167 210.41 160.275 210.38 160.371 210.344L160.623 211.856C160.395 211.976 160.149 212.06 159.885 212.108C159.621 212.156 159.351 212.18 159.075 212.18ZM163.126 212L161.398 202.136H163.648L164.224 205.916C164.26 206.228 164.308 206.642 164.368 207.158C164.428 207.674 164.488 208.28 164.548 208.976H164.602C164.71 208.508 164.806 208.082 164.89 207.698C164.986 207.314 165.076 206.972 165.16 206.672C165.244 206.36 165.316 206.09 165.376 205.862L166.438 202.136H167.95L169.012 205.862C169.084 206.09 169.162 206.36 169.246 206.672C169.33 206.972 169.414 207.314 169.498 207.698C169.594 208.082 169.696 208.508 169.804 208.976H169.858C169.918 208.28 169.972 207.674 170.02 207.158C170.08 206.642 170.134 206.228 170.182 205.916L170.776 202.136H173.008L171.28 212H169.048L167.716 207.482C167.608 207.074 167.518 206.69 167.446 206.33C167.374 205.958 167.308 205.544 167.248 205.088H167.176C167.128 205.4 167.08 205.682 167.032 205.934C166.984 206.186 166.93 206.438 166.87 206.69C166.81 206.93 166.738 207.194 166.654 207.482L165.322 212H163.126ZM164.317 200.696V199.724L165.955 199.04H172.345V200.696H164.317ZM168.079 199.742V197.708H169.645V199.742H168.079ZM170.797 199.742V197.708H172.345V199.742H170.797ZM169.372 196.718V193.532H171.406V196.718H169.372ZM178.865 212.216C177.461 212.216 176.417 211.868 175.733 211.172C175.061 210.464 174.725 209.402 174.725 207.986C174.725 207.746 174.731 207.464 174.743 207.14C174.767 206.816 174.791 206.522 174.815 206.258H178.937V207.806H176.975V208.094C176.975 208.682 177.041 209.15 177.173 209.498C177.317 209.846 177.527 210.098 177.803 210.254C178.079 210.41 178.427 210.488 178.847 210.488C179.303 210.488 179.693 210.392 180.017 210.2C180.341 210.008 180.587 209.678 180.755 209.21C180.935 208.73 181.025 208.064 181.025 207.212C181.025 206.444 180.935 205.808 180.755 205.304C180.587 204.788 180.305 204.404 179.909 204.152C179.513 203.9 178.967 203.774 178.271 203.774C177.899 203.774 177.527 203.81 177.155 203.882C176.783 203.954 176.423 204.05 176.075 204.17C175.739 204.29 175.433 204.434 175.157 204.602V202.64C175.409 202.496 175.721 202.376 176.093 202.28C176.465 202.172 176.873 202.088 177.317 202.028C177.761 201.956 178.205 201.92 178.649 201.92C179.777 201.92 180.683 202.136 181.367 202.568C182.063 202.988 182.567 203.588 182.879 204.368C183.203 205.148 183.365 206.066 183.365 207.122C183.365 208.202 183.215 209.126 182.915 209.894C182.615 210.65 182.135 211.226 181.475 211.622C180.815 212.018 179.945 212.216 178.865 212.216ZM186.288 203.936V201.092C186.288 200.636 186.33 200.27 186.414 199.994C186.498 199.706 186.612 199.472 186.756 199.292C186.9 199.112 187.05 198.962 187.206 198.842L187.188 198.77H184.272L184.74 197.078H190.23V198.77C189.786 198.77 189.396 198.914 189.06 199.202C188.736 199.49 188.574 200.018 188.574 200.786V203.936H186.288ZM188.592 212.18C188.124 212.18 187.716 212.108 187.368 211.964C187.032 211.82 186.768 211.592 186.576 211.28C186.384 210.956 186.288 210.542 186.288 210.038V202.136H188.574V209.75C188.574 210.002 188.628 210.188 188.736 210.308C188.844 210.416 189.018 210.47 189.258 210.47C189.354 210.47 189.456 210.458 189.564 210.434C189.684 210.41 189.792 210.38 189.888 210.344L190.122 211.856C189.894 211.976 189.648 212.06 189.384 212.108C189.132 212.156 188.868 212.18 188.592 212.18ZM195.824 212.216C194.312 212.216 193.22 211.868 192.548 211.172C191.888 210.476 191.558 209.468 191.558 208.148V202.136H193.844V208.256C193.844 208.952 194.006 209.48 194.33 209.84C194.654 210.188 195.152 210.362 195.824 210.362C196.508 210.362 197.012 210.188 197.336 209.84C197.66 209.48 197.822 208.952 197.822 208.256V198.59H200.108V208.148C200.108 209.468 199.772 210.476 199.1 211.172C198.428 211.868 197.336 212.216 195.824 212.216ZM206.489 212.18C205.445 212.18 204.635 211.958 204.059 211.514C203.483 211.058 203.081 210.44 202.853 209.66C202.625 208.868 202.511 207.95 202.511 206.906C202.511 205.742 202.625 204.8 202.853 204.08C203.081 203.348 203.417 202.814 203.861 202.478C204.317 202.13 204.869 201.956 205.517 201.956C205.937 201.956 206.303 202.034 206.615 202.19C206.927 202.346 207.167 202.622 207.335 203.018H207.407C207.551 202.61 207.803 202.334 208.163 202.19C208.523 202.034 208.919 201.956 209.351 201.956C210.155 201.956 210.767 202.172 211.187 202.604C211.607 203.036 211.817 203.678 211.817 204.53V212H209.531V204.854C209.531 204.446 209.453 204.17 209.297 204.026C209.153 203.882 208.955 203.81 208.703 203.81C208.439 203.81 208.241 203.882 208.109 204.026C207.977 204.17 207.893 204.41 207.857 204.746H206.813C206.765 204.374 206.657 204.128 206.489 204.008C206.333 203.876 206.153 203.81 205.949 203.81C205.577 203.81 205.295 204.05 205.103 204.53C204.911 205.01 204.815 205.808 204.815 206.924C204.815 207.656 204.869 208.286 204.977 208.814C205.097 209.33 205.301 209.726 205.589 210.002C205.877 210.266 206.291 210.398 206.831 210.398C207.011 210.398 207.167 210.392 207.299 210.38C207.431 210.356 207.551 210.326 207.659 210.29L207.893 211.946C207.701 212.03 207.485 212.09 207.245 212.126C207.017 212.162 206.765 212.18 206.489 212.18ZM209.301 200.696V196.718H211.443V200.696H209.301ZM218.342 212.216C216.938 212.216 215.894 211.868 215.21 211.172C214.538 210.464 214.202 209.402 214.202 207.986C214.202 207.746 214.208 207.464 214.22 207.14C214.244 206.816 214.268 206.522 214.292 206.258H218.414V207.806H216.452V208.094C216.452 208.682 216.518 209.15 216.65 209.498C216.794 209.846 217.004 210.098 217.28 210.254C217.556 210.41 217.904 210.488 218.324 210.488C218.78 210.488 219.17 210.392 219.494 210.2C219.818 210.008 220.064 209.678 220.232 209.21C220.412 208.73 220.502 208.064 220.502 207.212C220.502 206.444 220.412 205.808 220.232 205.304C220.064 204.788 219.782 204.404 219.386 204.152C218.99 203.9 218.444 203.774 217.748 203.774C217.376 203.774 217.004 203.81 216.632 203.882C216.26 203.954 215.9 204.05 215.552 204.17C215.216 204.29 214.91 204.434 214.634 204.602V202.64C214.886 202.496 215.198 202.376 215.57 202.28C215.942 202.172 216.35 202.088 216.794 202.028C217.238 201.956 217.682 201.92 218.126 201.92C219.254 201.92 220.16 202.136 220.844 202.568C221.54 202.988 222.044 203.588 222.356 204.368C222.68 205.148 222.842 206.066 222.842 207.122C222.842 208.202 222.692 209.126 222.392 209.894C222.092 210.65 221.612 211.226 220.952 211.622C220.292 212.018 219.422 212.216 218.342 212.216Z" fill="#EAE5FA"/>
<defs>
<filter id="filter0_f_451_3211" x="0" y="0" width="350" height="350" filterUnits="userSpaceOnUse" color-interpolation-filters="sRGB">
<feFlood flood-opacity="0" result="BackgroundImageFix"/>
<feBlend mode="normal" in="SourceGraphic" in2="BackgroundImageFix" result="shape"/>
<feGaussianBlur stdDeviation="50" result="effect1_foregroundBlur_451_3211"/>
</filter>
</defs>
</svg>
